!!!!SEGMENT: pl-cz--iii-573--004_rygall-ignacy--rorate-caeli-zdrowals-badlz-maria.krn
!!!cenid: 18xx:1034
!!!COM: Rygall, Ignacy
!!!COM-rismid: pe30110281
!!!CDT: <1750->1799
!!!CNT:
!!!OPR: Rorate caeli
!!!OTL: Zdrowaś bądź Maria
!!!OMV: 004
!!!PDT:
!!!AGN: Sacred
!!!SMS-siglum: PL-CZ
!!!SMS-shelfmark: III-573
!!!SMS-shelfwork: 001-004 M
!!!SMS-variant:
!!!SMS-altvar:
!!!NIFC-rismid: 300001133
!!!system-decoration: [(s1,s2)][(s3,s4)][(s5)][(s6,s7,s8,s9)][(s10,s11,s12,s13,s14)][(s15)]
!!!key:
**kern	**dynam	**kern	**kern	**kern	**kern	**kern	**kern	**kern	**kern	**text	**kern	**text	**kern	**kern	**kern	**kern	**kern
*part15	*part15	*part14	*part13	*part12	*part11	*part10	*part9	*part8	*part7	*part7	*part6	*part6	*part5	*part4	*part3	*part2	*part1
*staff15	*	*staff14	*staff13	*staff12	*staff11	*staff10	*staff9	*staff8	*staff7	*staff7	*staff6	*staff6	*staff5	*staff4	*staff3	*staff2	*staff1
*Iorgan	*	*Iempty	*Iempty	*Iempty	*Ivioln	*Ivioln	*Iempty	*Itenor	*Ialto	*	*Isoprn	*	*Iempty	*Icor	*Iempty	*Ioboe	*Ioboe
*I"Organo	*	*I"Viola 2da.	*I"Alto Viola Prima.	*I"Violino Graſso	*I"Violino Secondo.	*I"Violino Primo.	*I"Baſso	*I"Tenore	*I"Alto.	*	*I"Soprano	*	*I"Tympano in D: A.	*I"Corno 2do in G.	*I"Corno 1mo in G.	*I"Oboe	*I"Oboe 1mo
*I'Organo	*	*I'Viola 2da.	*I'Alto Viola Prima.	*I'Violino Graſso	*I'Violino Secondo.	*I'Violino Primo.	*I'B.	*I'T.	*I'A.	*	*I'S.	*	*I'Tympano in D: A.	*I'Corno 2do in G.	*I'Corno 1mo in G.	*I'Ob.	*I'Oboe 1mo
*clefF4	*	*clefC3	*clefC3	*clefC3	*clefG2	*clefG2	*clefF4	*clefC4	*clefC3	*	*clefC1	*	*clefF4	*clefG2	*clefG2	*clefG2	*clefG2
*	*	*	*	*	*	*	*	*	*	*	*	*	*	*ITrd3c5	*ITrd3c5	*	*
*k[f#]	*	*k[f#]	*k[f#]	*k[f#]	*k[f#]	*k[f#]	*k[f#]	*k[f#]	*k[f#]	*	*k[f#]	*	*k[f#]	*k[f#]	*k[f#]	*k[f#]	*k[f#]
*G:	*	*G:	*G:	*G:	*G:	*G:	*G:	*G:	*G:	*	*G:	*	*G:	*G:	*G:	*G:	*G:
*M3/4	*	*M3/4	*M3/4	*M3/4	*M3/4	*M3/4	*M3/4	*M3/4	*M3/4	*	*M3/4	*	*M3/4	*M3/4	*M3/4	*M3/4	*M3/4
=1	=1	=1	=1	=1	=1	=1	=1	=1	=1	=1	=1	=1	=1	=1	=1	=1	=1
*	*	*	*	*	*	*	*	*	*2\right	*	*2\right	*	*	*	*2\right	*	*
!	!	!LO:TX:b:Bi:t=Zdrowaś	!LO:TX:b:Bi:t=Zdrowaś	!	!	!	!	!	!	!	!	!	!	!	!	!LO:TX:b:Bi:t=Zdrovas	!
!	!	!	!.	!	!LO:TX:a:Bi:t=Zdrovas Tace	!LO:TX:a:Bi:t=Zdrovas Tace	!LO:TX:a:Bi:t=Zdrovas Tace	!LO:TX:a:Bi:t=Zdrovas Tace	!	!	!	!	!	!	!	!	!
!	!	!	!	!LO:TX:t=P:problem=w źródle brak części	!	!	!	!	!	!	!	!	!LO:TX:t=P:problem=brak głosu	!	!	!	!
!	!	!	!	!	!	!	!	!	!LO:TX:a:Bi:t=Solo:rj:problem=w źrodle głos sopranowy posiada partię natomiast słowa zostały skreślone i zamienione na inne [w kodzie słowa "zdrovas"]	!	!	!	!	!	!	!	!
4GG/	.	2b\	2dd\	2.ryy	2.ryy	2.ryy	2.ryy	2.ryy	2b\	zdro-	2dd\	Zdro-	2.ryy	2b\	2dd\	0.r	0.r
!LO:TX:t=P:p = p:problem	!	!	!	!	!	!	!	!	!	!	!	!	!	!	!	!	!
!	!LO:DY:b:Bi:t=%s&colon;	!	!	!	!	!	!	!	!	!	!	!	!	!	!	!	!
4B\	p	.	.	.	.	.	.	.	.	.	.	.	.	.	.	.	.
4G\	.	4g\	4b\	.	.	.	.	.	4g\	-vas	4b\	-vas	.	4g\	4b\	.	.
=2	=2	=2	=2	=2	=2	=2	=2	=2	=2	=2	=2	=2	=2	=2	=2	=2	=2
4F#\	.	2d\	2a\	2.ryy	2.ryy	2.ryy	2.ryy	2.ryy	4.f#\	bądz	4.a\	bąds	2.ryy	2d\	2a\	.	.
4D\	.	.	.	.	.	.	.	.	.	.	.	.	.	.	.	.	.
.	.	.	.	.	.	.	.	.	8a\	.	8cc\	.	.	.	.	.	.
4G\	.	4g\	4b\	.	.	.	.	.	8g\L	Ma-	8b\L	Ma-	.	4g\	4b\	.	.
.	.	.	.	.	.	.	.	.	8cc\J	.	8ee\J	.	.	.	.	.	.
=3	=3	=3	=3	=3	=3	=3	=3	=3	=3	=3	=3	=3	=3	=3	=3	=3	=3
4A\	.	4b\	4dd\	2.ryy	2.ryy	2.ryy	2.ryy	2.ryy	2b\	-ri-	2dd\	-ri-	2.ryy	4b\	4b\	.	.
4F#\	.	4a\	4cc\	.	.	.	.	.	.	.	.	.	.	4a\	4cc\	.	.
4D\	.	4d\	4a\	.	.	.	.	.	4a\	.	4cc\	.	.	4d\	4a\	.	.
!	!	!	!	!	!	!	!	!	!	!	!	!	!	!LO:LB:g=original	!	!	!
=4	=4	=4	=4	=4	=4	=4	=4	=4	=4	=4	=4	=4	=4	=4	=4	=4	=4
4G\	.	4g\	4b\	2.ryy	2.ryy	2.ryy	2.ryy	2.ryy	2g\	-a	2b\	-a.	2.ryy	4g\	4b\	.	.
4GG/	.	8g\L	8b\L	.	.	.	.	.	.	.	.	.	.	8g\L	8b\L	.	.
.	.	8g\J	8b\J	.	.	.	.	.	.	.	.	.	.	8g\J	8b\J	.	.
4G\	.	4g\	4b\	.	.	.	.	.	4r	.	4r	.	.	4g\	4b\	.	.
!	!	!	!	!	!	!	!	!	!LO:LB:g=original	!	!	!	!	!	!	!	!
!LO:LB:g=original	!	!	!	!	!	!	!	!	!	!	!	!	!	!	!	!	!
=5	=5	=5	=5	=5	=5	=5	=5	=5	=5	=5	=5	=5	=5	=5	=5	=5	=5
*	*	*	*	*	*	*	*	*	*	*	*	*	*	*	*	*2\right	*2\right
!	!	!	!LO:TX:a:Bi:t=4	!	!	!	!	!	!	!	!	!	!	!LO:TX:a:Bi:t=4	!LO:TX:a:Bi:t=4.	!	!
4G\	.	0.r	0.r	2.ryy	2.ryy	2.ryy	2.ryy	2.ryy	2g\	Nie-	2b\	Nie-	2.ryy	0.r	0.r	2gg\	2bb\
4G\	.	.	.	.	.	.	.	.	.	.	.	.	.	.	.	.	.
4E\	.	.	.	.	.	.	.	.	4e\	-bies-	4cc#X\	-bies-	.	.	.	4ee\	4gg\
!	!	!	!	!	!	!	!	!	!LO:LB:g=original	!	!	!	!	!	!	!LO:LB:g=original	!
=6	=6	=6	=6	=6	=6	=6	=6	=6	=6	=6	=6	=6	=6	=6	=6	=6	=6
4F#\	.	.	.	2.ryy	2.ryy	2.ryy	2.ryy	2.ryy	2f#\	-kka	2dd\	-Ka	2.ryy	.	.	2dd\	2ff#\
4D\	.	.	.	.	.	.	.	.	.	.	.	.	.	.	.	.	.
4F#\	.	.	.	.	.	.	.	.	4r	.	4r	.	.	.	.	4ff#\	4aa\
=7	=7	=7	=7	=7	=7	=7	=7	=7	=7	=7	=7	=7	=7	=7	=7	=7	=7
4G\	.	.	.	2.ryy	2.ryy	2.ryy	2.ryy	2.ryy	4g\	li-	4ee\	li-	2.ryy	.	.	8b/L	8gg\L
.	.	.	.	.	.	.	.	.	.	.	.	.	.	.	.	8g/J	8ee\J
4A\	.	.	.	.	.	.	.	.	4f#\	-li-	4dd\	-li-	.	.	.	4f#/	4dd\
4AA/	.	.	.	.	.	.	.	.	4e\	.	4cc#X\	.	.	.	.	4g/	4cc#X\
=8	=8	=8	=8	=8	=8	=8	=8	=8	=8	=8	=8	=8	=8	=8	=8	=8	=8
4D\	.	.	.	2.ryy	2.ryy	2.ryy	2.ryy	2.ryy	2f#\	-a	2dd\	-a	2.ryy	.	.	2f#/	2dd\
4DD/	.	.	.	.	.	.	.	.	.	.	.	.	.	.	.	.	.
4D\	.	.	.	.	.	.	.	.	4r	.	4r	.	.	.	.	4r	4r
=9	=9	=9	=9	=9	=9	=9	=9	=9	=9	=9	=9	=9	=9	=9	=9	=9	=9
4B\	.	4b\	2dd\	2.ryy	2.ryy	2.ryy	2.ryy	2.ryy	2b\	Pa-	4dd\	Pa-	2.ryy	4b\	2dd\	0.r	0.r
4G\	.	4g\	.	.	.	.	.	.	.	.	4gg\	-nu	.	4g\	.	.	.
4B\	.	4b\	4cc\	.	.	.	.	.	4b\	-nu	4ffn\	.	.	4b\	4dd\	.	.
!	!	!	!	!	!	!	!	!	!	!	!	!	!	!	!LO:LB:g=original	!	!
=10	=10	=10	=10	=10	=10	=10	=10	=10	=10	=10	=10	=10	=10	=10	=10	=10	=10
4c\	.	4cc\	2ee\	2.ryy	2.ryy	2.ryy	2.ryy	2.ryy	2cc\	Bo-	2ee\	Bo-	2.ryy	4cc\	2ee\	.	.
4C/	.	4g\	.	.	.	.	.	.	.	.	.	.	.	4g\	.	.	.
!	!	!LO:TX:a:i:t=h	!	!	!	!	!	!	!	!	!	!	!	!	!	!	!
!	!	!LO:TX:b:i:t=h	!	!	!	!	!	!	!	!	!	!	!	!	!	!	!
4B\	.	4b\	4dd\	.	.	.	.	.	4b\	-gu	4dd\	-gu	.	4b\	4dd\	.	.
=11	=11	=11	=11	=11	=11	=11	=11	=11	=11	=11	=11	=11	=11	=11	=11	=11	=11
4A\	.	4b\	4dd\	2.ryy	2.ryy	2.ryy	2.ryy	2.ryy	4b\	Mi-	4dd\	Mi-	2.ryy	4b\	4dd\	.	.
4F#\	.	4a\	4cc\	.	.	.	.	.	4a\	.	4cc\	.	.	4a\	4cc\	.	.
4G\	.	4g\	4b\	.	.	.	.	.	4g\	.	4b\	.	.	4g\	4b\	.	.
=12	=12	=12	=12	=12	=12	=12	=12	=12	=12	=12	=12	=12	=12	=12	=12	=12	=12
4D\	.	4d\	4a\	2.ryy	2.ryy	2.ryy	2.ryy	2.ryy	2f#\	-la	2a\	-la	2.ryy	4d/	4a\	.	.
4AA\	.	4d\	4a\	.	.	.	.	.	.	.	.	.	.	4d/	4a\	.	.
4DD/	.	4d\	4a\	.	.	.	.	.	4r	.	4r	.	.	4d/	4a\	.	.
=13	=13	=13	=13	=13	=13	=13	=13	=13	=13	=13	=13	=13	=13	=13	=13	=13	=13
4F#\	.	2d\	2a\	2.ryy	2.ryy	2.ryy	2.ryy	2.ryy	2f#\	Mat-	2a\	Ma-	2.ryy	2d/	2a\	0.r	0.r
4D\	.	.	.	.	.	.	.	.	.	.	.	.	.	.	.	.	.
4G\	.	4g\	4b\	.	.	.	.	.	4g\	.	4b\	-tko	.	4g\	4b\	.	.
!	!	!	!LO:LB:g=original	!	!	!	!	!	!	!	!LO:LB:g=original	!	!	!	!	!	!
=14	=14	=14	=14	=14	=14	=14	=14	=14	=14	=14	=14	=14	=14	=14	=14	=14	=14
4A\	.	4a\	2cc\	2.ryy	2.ryy	2.ryy	2.ryy	2.ryy	2a\	.	2cc\	li-	2.ryy	4a\	2cc\	.	.
4D\	.	4d\	.	.	.	.	.	.	.	.	.	.	.	4d/	.	.	.
4G\	.	4g\	4b\	.	.	.	.	.	4g\	-ko	4b\	-tos-	.	4g\	4b\	.	.
!	!	!LO:LB:g=original	!	!	!	!	!	!	!LO:LB:g=original	!	!	!	!	!	!	!	!
=15	=15	=15	=15	=15	=15	=15	=15	=15	=15	=15	=15	=15	=15	=15	=15	=15	=15
4c\	.	8cc\L	8ee\L	2.ryy	2.ryy	2.ryy	2.ryy	2.ryy	8cc\L	li-	8ee\L	-ci-	2.ryy	8cc\L	8ee\L	.	.
.	.	8b\J	8dd\J	.	.	.	.	.	8b\J	-tos-	8dd\J	.	.	8b\J	8dd\J	.	.
4A\	.	4a\	4cc\	.	.	.	.	.	4a\	-ci-	4cc\	.	.	4a\	4cc\	.	.
4c#X\	.	4g\	4b\	.	.	.	.	.	4g\	.	4b\	.	.	4g\	4b\	.	.
=16	=16	=16	=16	=16	=16	=16	=16	=16	=16	=16	=16	=16	=16	=16	=16	=16	=16
4d\	.	4d\	4a\	2.ryy	2.ryy	2.ryy	2.ryy	2.ryy	2f#\	-va	2a\	-va	2.ryy	4d/	4a\	.	.
4A\	.	8d\L	8a\L	.	.	.	.	.	.	.	.	.	.	8d/L	8a\L	.	.
.	.	8d\J	8a\J	.	.	.	.	.	.	.	.	.	.	8d/J	8a\J	.	.
4D\	.	4d\	4a\	.	.	.	.	.	4r	.	4r	.	.	4d/	4a\	.	.
!LO:LB:g=original	!	!	!	!	!	!	!	!	!	!	!	!	!	!	!	!	!
=17	=17	=17	=17	=17	=17	=17	=17	=17	=17	=17	=17	=17	=17	=17	=17	=17	=17
!	!	!	!LO:TX:a:Bi:t=2	!	!	!	!	!	!	!	!	!	!	!LO:TX:a:Bi:t=2	!LO:TX:a:Bi:t=2	!	!
4F#\	.	1.r	1.r	2.ryy	2.ryy	2.ryy	2.ryy	2.ryy	2a\	Tys	2cc\	Tys	2.ryy	1.r	1.r	2g\	2cc\
4F#\	.	.	.	.	.	.	.	.	.	.	.	.	.	.	.	.	.
4G\	.	.	.	.	.	.	.	.	4g\	iest	4b\	ust	.	.	.	4g\	4b\
=18	=18	=18	=18	=18	=18	=18	=18	=18	=18	=18	=18	=18	=18	=18	=18	=18	=18
4c\	.	.	.	2.ryy	2.ryy	2.ryy	2.ryy	2.ryy	2cc\	na-	2ee\	na-	2.ryy	.	.	2cc\	2ee\
4c\	.	.	.	.	.	.	.	.	.	.	.	.	.	.	.	.	.
4B\	.	.	.	.	.	.	.	.	4b\	-sza	4dd\	-sza	.	.	.	4b\	4dd\
=19	=19	=19	=19	=19	=19	=19	=19	=19	=19	=19	=19	=19	=19	=19	=19	=19	=19
4c\	.	4a\	4cc\	2.ryy	2.ryy	2.ryy	2.ryy	2.ryy	8b\L	u-	4cc\	u-	2.ryy	4a\	4cc\	4cc\	4aa\
.	.	.	.	.	.	.	.	.	8a\J	.	.	.	.	.	.	.	.
4d\	.	4g\	4b\	.	.	.	.	.	4g\	-ciecz-	4b\	-czecz-	.	4g\	4b\	4b\	4gg\
4D\	.	4d\	4a\	.	.	.	.	.	4d\	.	4a\	.	.	4d\	4a\	4a\	4ff#\
=20	=20	=20	=20	=20	=20	=20	=20	=20	=20	=20	=20	=20	=20	=20	=20	=20	=20
4G\	.	4B/	4g\	2.ryy	2.ryy	2.ryy	2.ryy	2.ryy	2B/	-ka	2g\	-Ka	2.ryy	4B/	4g\	8g/L	8g'/L
.	.	.	.	.	.	.	.	.	.	.	.	.	.	.	.	16f#'/L	16a'/L
.	.	.	.	.	.	.	.	.	.	.	.	.	.	.	.	16g'/JJ	16b'/JJ
4r	.	4r	4r	.	.	.	.	.	.	.	.	.	.	4r	4r	16a'/LL	16cc'/LL
.	.	.	.	.	.	.	.	.	.	.	.	.	.	.	.	16b'/	16dd'/
.	.	.	.	.	.	.	.	.	.	.	.	.	.	.	.	16cc'/	16ee'/
.	.	.	.	.	.	.	.	.	.	.	.	.	.	.	.	16a'/JJ	16ff#'/JJ
4r	.	4r	4r	.	.	.	.	.	4r	.	4r	.	.	4r	4r	4b'/	4gg\
!	!	!	!	!	!	!	!	!	!	!	!LO:LB:g=original	!	!	!	!	!	!LO:LB:g=original
=21	=21	=21	=21	=21	=21	=21	=21	=21	=21	=21	=21	=21	=21	=21	=21	=21	=21
4c\	.	4a\	4cc\	2.ryy	2.ryy	2.ryy	2.ryy	2.ryy	4a\	Na-	4cc\	Na-	2.ryy	4a\	4cc\	4cc\	4aa\
!	!	!	!LO:TX:a:i:t=h	!	!	!	!	!	!	!	!	!	!	!	!	!	!
4d\	.	4g\	4b\	.	.	.	.	.	4g\	-svięt-	4b\	-svęt-	.	4g\	4b\	4b\	4gg\
4D\	.	4d\	4a\	.	.	.	.	.	4f#\	.	4a\	.	.	4d\	4a\	4a\	4ff#\
!	!	!	!	!	!	!	!	!	!	!	!	!	!	!LO:LB:g=original	!LO:LB:g=original	!	!
=22	=22	=22	=22	=22	=22	=22	=22	=22	=22	=22	=22	=22	=22	=22	=22	=22	=22
*rep	*	*	*	*	*	*	*	*	*	*	*	*	*	*	*	*	*
!LO:TX:t=P:problem=t. 22-23 zapisane jako repetycja	!	!	!	!	!	!	!	!	!	!	!	!	!	!	!	!	!
4G\	.	4B/	4g\	2.ryy	2.ryy	2.ryy	2.ryy	2.ryy	2g\	-sza	2g\	-sza	2.ryy	4B/	4g\	8g'\L	8b'\L
.	.	.	.	.	.	.	.	.	.	.	.	.	.	.	.	16a'\L	16cc'\L
.	.	.	.	.	.	.	.	.	.	.	.	.	.	.	.	16b'\JJ	16dd'\JJ
4r	.	4r	4r	.	.	.	.	.	.	.	.	.	.	4r	4r	16cc'\LL	16ee'\LL
.	.	.	.	.	.	.	.	.	.	.	.	.	.	.	.	16dd'\	16ff#'\
.	.	.	.	.	.	.	.	.	.	.	.	.	.	.	.	16ee'\	16gg'\
.	.	.	.	.	.	.	.	.	.	.	.	.	.	.	.	16ff#'\JJ	16aa'\JJ
!LO:TX:a:Bi:t=2	!	!	!	!	!	!	!	!	!	!	!	!	!	!	!	!	!
4r	.	4r	4r	.	.	.	.	.	4r	.	4r	.	.	4r	4r	4gg\	4bb'\
!	!	!	!	!	!	!	!	!	!LO:LB:g=original	!	!LO:LB:g=original	!	!	!	!	!LO:LB:g=original	!
=23	=23	=23	=23	=23	=23	=23	=23	=23	=23	=23	=23	=23	=23	=23	=23	=23	=23
4c\	.	4a\	4cc\	2.ryy	2.ryy	2.ryy	2.ryy	2.ryy	8cc\L	Ma-	8ee\L	Ma-	2.ryy	4a\	4cc\	4cc\	4aa\
.	.	.	.	.	.	.	.	.	8a\J	.	8cc\J	.	.	.	.	.	.
4d\	.	4g\	4b\	.	.	.	.	.	4g\	.	4b\	.	.	4g\	4b\	4b\	4gg\
4D\	.	4d\	4a\	.	.	.	.	.	4f#\	-ri-	4a\	-ri-	.	4d\	4a\	4a/	4ff#\
*Xrep	*	*	*	*	*	*	*	*	*	*	*	*	*	*	*	*	*
=24	=24	=24	=24	=24	=24	=24	=24	=24	=24	=24	=24	=24	=24	=24	=24	=24	=24
4G\	.	4B/	4g\	2.ryy	2.ryy	2.ryy	2.ryy	2.ryy	2g\	-a.	2g\	-a.	2.ryy	4B/	2g\	2b\	2gg\
4D\	.	4r	4r	.	.	.	.	.	.	.	.	.	.	4r	.	.	.
4GG/	.	4r	4r	.	.	.	.	.	4r	.	4r	.	.	4r	4r	4r	4r
*Xrep	*	*	*	*	*	*	*	*	*	*	*	*	*	*	*	*	*
==	==	==	==	==	==	==	==	==	==	==	==	==	==	==	==	==	==
*-	*-	*-	*-	*-	*-	*-	*-	*-	*-	*-	*-	*-	*-	*-	*-	*-	*-
!!title: @{OTL};
!!!RDF**kern: > = above
!!!RDF**kern: < = below
!!!RDF**kern: | = vertical stroke
!!!RDF**kern: N = linked
!!!RDF**kern: i = editorial accidental
!!!RDF**kern: l = terminal long
!!!AIN: 1 alto 1 cor 6 empty 2 oboe 1 organ 1 soprn 1 tenor 2 violn
!!!ENC: Marcin Jachim
!!!END: 2020-10-04
!!!EED: Wojciech Jakubiak-Danek
!!!EST: 2021-12-30
!!!URL-scan: http://repozytorium.nifc.pl/skany/pl-cz-nut--iii-573
!!!ONB-nifc: UWAGA: części Rorate caeli: Intonatio, Benedixisti Domine, Mittit ad virginem,
